img/creator-hd-large-fill-3.svg

<svg height="33.33874" viewBox="0 0 30.5910001 33.33874" width="30.591" xmlns="http://www.w3.org/2000/svg"><path d="m29.3166938 0h-28.04143148c-.70454897 0-1.27526232.62197587-1.27526232 1.38876689v30.56120621c0 .7667911.57071335 1.3887669 1.27526232 1.3887669h14.97620648v-12.5020275h-3.823875v-5.2091781h3.823875v-4.1673425c0-4.30590666 2.5017702-6.42500032 6.026427-6.42500032 1.6882409 0 3.1394014.1375223 3.5619396.19794877v4.5007299l-2.4444121.00104184c-1.9167173 0-2.3641107.99286931-2.3641107 2.44935551v3.4432668h4.7798438l-.9559688 5.2091781h-3.823875l.0764775 12.5020275h8.2089037c.703593 0 1.2743063-.6219758 1.2743063-1.3887669v-30.56120621c0-.76679102-.5707133-1.38876689-1.2743063-1.38876689" fill="#9b9b9b" fill-rule="evenodd"/></svg>

<?xml version="1.0" encoding="UTF-8"?>
<svg width="30.5910001px" height="33.33874px" viewBox="0 0 30.5910001 33.33874" version="1.1" xmlns="http://www.w3.org/2000/svg" xmlns:xlink="http://www.w3.org/1999/xlink">
    <!-- Generator: Sketch 50.2 (55047) - http://www.bohemiancoding.com/sketch -->
    <desc>Created with Sketch.</desc>
    <defs></defs>
    <g id="Page-1" stroke="none" stroke-width="1" fill="none" fill-rule="evenodd">
        <path d="M29.3166938,0 L1.27526232,0 C0.570713346,0 0,0.621975869 0,1.38876689 L0,31.9499731 C0,32.7167642 0.570713346,33.33874 1.27526232,33.33874 L16.2514688,33.33874 L16.2514688,20.8367125 L12.4275938,20.8367125 L12.4275938,15.6275344 L16.2514688,15.6275344 L16.2514688,11.4601919 C16.2514688,7.15428524 18.753239,5.03519158 22.2778958,5.03519158 C23.9661367,5.03519158 25.4172972,5.17271388 25.8398354,5.23314035 L25.8398354,9.73387025 L23.3954233,9.73491209 C21.478706,9.73491209 21.0313126,10.7277814 21.0313126,12.1842676 L21.0313126,15.6275344 L25.8111564,15.6275344 L24.8551876,20.8367125 L21.0313126,20.8367125 L21.1077901,33.33874 L29.3166938,33.33874 C30.0202868,33.33874 30.5910001,32.7167642 30.5910001,31.9499731 L30.5910001,1.38876689 C30.5910001,0.621975869 30.0202868,0 29.3166938,0" id="Fill-3" fill="#9B9B9B"></path>
    </g>
</svg>
